X:1
T:Title
%%score { 1 | 2 }
L:1/8
M:3/4
K:F
V:1 treble nm="Grand Piano"
V:2 bass 
V:1
 z2 z2[Q:1/4=94] A>G | F3 C F>G | A c3 c>d | c3 A F>A |[M:2/4] [EG]4 |[M:1/4] A>G | %6
[M:3/4] F3 C F>G | A c3 c>d | c3 A [EG]>F |[M:2/4] F4 |[M:1/4] c>c |[M:3/4] [Fd]3 [Fd] [FB]>[Fd] | %12
 d c3 c>c | [Ec]3 [EG] [FA]>[GB] |[M:2/4] A4 |[M:1/4] A>G |[M:3/4] F3 C F>G | A c3 c>d | %18
 c3 A [EG]>F |[M:2/4] F4 |] %20
V:2
 z2 z2 [F,CF]>[F,B,C] | [F,A,C]3 [F,A,] [F,A,C]>[F,B,C] | [F,CF] [F,A,F]3 [F,A,F]>[F,B,F] | %3
 [F,A,F]3 [F,CF] [F,A,C]>[F,CF] |[M:2/4] [C,C]4 |[M:1/4] [F,CF]>[F,B,C] | %6
[M:3/4] [F,A,C]3 [F,A,] [F,A,C]>[F,B,C] | [F,CF] [F,A,F]3 [F,A,F]>[F,B,F] | %8
 [F,A,F]3 [F,CF] [C,B,]>[F,A,C] |[M:2/4] [F,A,C]4 |[M:1/4] [F,A,F]>[F,A,F] | %11
[M:3/4] [B,,B,]3 [B,,B,] [B,,B,]>[B,,B,] | [F,B,F] [F,A,F]3 [F,A,F]>[F,A,F] | %13
 [C,G,]3 [C,C] [C,C]>[C,C] |[M:2/4] [F,CF]4 |[M:1/4] [F,CF]>[F,B,] | %16
[M:3/4] [F,A,C]3 [F,A,] [F,A,C]>[F,B,C] | [F,CF] [F,A,F]3 [F,A,F]>[F,B,F] | %18
 [F,A,F]3 [F,CF] [C,B,]>[F,A,C] |[M:2/4] [F,A,C]4 |] %20

